svg/discord.svg

<?xml version="1.0" encoding="UTF-8"?>
<svg xmlns="http://www.w3.org/2000/svg" xmlns:xlink="http://www.w3.org/1999/xlink" width="32" height="32" viewBox="0 0 32 32">
<path fill-rule="nonzero" fill="rgb(40%, 39.607843%, 82.352941%)" fill-opacity="1" d="M 27.269531 7.988281 C 23.605469 5.242188 20.089844 5.320312 20.089844 5.320312 L 19.730469 5.730469 C 24.089844 7.039062 26.117188 8.960938 26.117188 8.960938 C 19.878906 5.527344 11.933594 5.550781 5.449219 8.960938 C 5.449219 8.960938 7.550781 6.933594 12.167969 5.628906 L 11.910156 5.320312 C 11.910156 5.320312 8.421875 5.242188 4.730469 7.984375 C 4.730469 7.984375 1.039062 14.628906 1.039062 22.808594 C 1.039062 22.808594 3.191406 26.5 8.859375 26.679688 C 8.859375 26.679688 9.808594 25.550781 10.578125 24.578125 C 7.320312 23.605469 6.089844 21.578125 6.089844 21.578125 C 8.136719 22.859375 10.203125 23.660156 12.78125 24.167969 C 16.976562 25.03125 22.195312 24.144531 26.089844 21.578125 C 26.089844 21.578125 24.808594 23.65625 21.449219 24.605469 C 22.007812 25.292969 22.574219 25.976562 23.140625 26.65625 C 28.808594 26.476562 30.964844 22.78125 30.964844 22.808594 C 30.960938 14.628906 27.269531 7.988281 27.269531 7.988281 M 11.21875 20.421875 C 9.78125 20.421875 8.601562 19.167969 8.601562 17.601562 C 8.707031 13.855469 13.753906 13.867188 13.832031 17.601562 C 13.832031 19.167969 12.679688 20.421875 11.21875 20.421875 M 20.578125 20.421875 C 19.140625 20.421875 17.960938 19.167969 17.960938 17.601562 C 18.078125 13.863281 23.0625 13.863281 23.191406 17.601562 C 23.191406 19.167969 22.039062 20.421875 20.578125 20.421875 "/>
</svg>

<svg role="img" viewBox="0 0 32 32" height="32" width="32" xmlns="http://www.w3.org/2000/svg"><path d="M27.27 7.988c-3.665-2.746-7.18-2.668-7.18-2.668l-.36.41c4.36 1.31 6.387 3.23 6.387 3.23-6.238-3.433-14.183-3.41-20.668 0 0 0 2.102-2.026 6.719-3.331l-.258-.309s-3.488-.078-7.18 2.664c0 0-3.69 6.645-3.69 14.825 0 0 2.151 3.691 7.82 3.87 0 0 .949-1.128 1.718-2.1-3.258-.974-4.488-3-4.488-3 2.047 1.28 4.113 2.081 6.691 2.589 4.196.863 9.414-.023 13.309-2.59 0 0-1.281 2.078-4.64 3.027.558.688 1.124 1.372 1.69 2.051 5.669-.18 7.825-3.875 7.825-3.847-.004-8.18-3.695-14.82-3.695-14.82M11.219 20.421c-1.438 0-2.617-1.254-2.617-2.82.105-3.747 5.152-3.735 5.23 0 0 1.566-1.152 2.82-2.613 2.82m9.36 0c-1.438 0-2.618-1.254-2.618-2.82.117-3.739 5.102-3.739 5.23 0 0 1.566-1.152 2.82-2.613 2.82" fill="rgb(40%, 39.607843%, 82.352941%)"/></svg>
